X: 549
M:3/2
L:1/8
K:Amin
edcB ABcd ecBA | GABc dcBA BcdB | AecA ceac BA^G^F | E2A4c2B2A2 ||
e2a2d2g2c2f2 | BcdB GABG BcdB | ea^gb edcB ABcA | E2A4c2B2A2 ||
e2e2e2e2e4 | dcBA G2d2BcdB | eaec AcBA ^GAB^G | E2A4c2B2A2 ||

